Adwaita++/actions/22/keyframes.svg

<svg fill="none" height="22" viewBox="0 0 22 22" width="22" xmlns="http://www.w3.org/2000/svg">
  <g fill="#444">
    <path d="m3 14h5v5h-5z"/>
    <path d="m14 3h5v5h-5z"/>
    <path clip-rule="evenodd" d="m6.83333 17.3333-.72222.6667-2.03484-2.2044.72222-.6667zm2.2985-2.2044-1.44445 1.3334-2.03484-2.2045 1.44445-1.3333zm2.03487-1.7956-1.44448 1.3334-2.03484-2.2044 1.44445-1.3334zm2.1666-2-1.4444 1.3334-2.03485-2.2044 1.44445-1.33338zm3.6667-3.3333-2.9444 2.6667-2.0349-2.20444 1.9793-1.96226z" fill-rule="evenodd"/>
  </g>
</svg>

<svg xmlns="http://www.w3.org/2000/svg" fill="none" width="22" height="22" viewBox="0 0 22 22">
 <rect fill="#444" width="5" height="5" x="3" y="14"/>
 <rect fill="#444" width="5" height="5" x="14" y="3"/>
 <path fill="#444" fill-rule="evenodd" d="M6.83333 17.3333L6.11111 18L4.07627 15.7956L4.79849 15.1289L6.83333 17.3333ZM9.13183 15.1289L7.68738 16.4623L5.65254 14.2578L7.09699 12.9245L9.13183 15.1289ZM11.1667 13.3333L9.72222 14.6667L7.68738 12.4623L9.13183 11.1289L11.1667 13.3333ZM13.3333 11.3333L11.8889 12.6667L9.85405 10.4623L11.2985 9.12892L13.3333 11.3333ZM17 8L14.0556 10.6667L12.0207 8.46226L14 6.5L17 8Z" clip-rule="evenodd"/>
</svg>
